images_elementary_svg/cmd/ko/lc_underlinedouble.svg

<svg height="24" width="24" xmlns="http://www.w3.org/2000/svg" xmlns:xlink="http://www.w3.org/1999/xlink"><radialGradient id="a" cx="10.918949" cy="4.564843" gradientTransform="matrix(-1.551757 .03070916 -.03957393 -1.999701 23.830413 10.037915)" gradientUnits="userSpaceOnUse" r="5.094793" xlink:href="#c"/><linearGradient id="b" gradientTransform="matrix(1 0 0 .66667 1 9.9999)" gradientUnits="userSpaceOnUse" x1="12" x2="12" xlink:href="#c" y1="22"/><linearGradient id="c"><stop offset="0" stop-color="#555"/><stop offset="1" stop-color="#666"/></linearGradient><path d="m3.5093144 1.5154195v1.5722672h8.0280916c-.404978 5.0741348-2.8444268 8.0766673-8.5855841 10.8162233l1.0481781 1.59609c7.099024-3.478046 9.514651-7.8146231 9.514651-13.9845805zm13.9906856-1.0154195v17h2v-17z" fill="url(#a)" stroke="#000" stroke-opacity=".6"/><path d="m17.5.5v1.5h2v-1.5zm-13.9902344 1.015625v1.5h9.9472654c.03486-.4892468.05859-.9858555.05859-1.5zm7.8300784 3.0722656c-.751574 4.1850813-3.2394491 6.8593084-8.3886721 9.3164064l.734375 1.117187c5.1914739-2.640564 7.4651561-5.592154 7.8515621-10.4335934z" fill="#fff" opacity=".2"/><g transform="translate(0 -3)"><path d="m2.5 22.333v1.3333h19v-1.3333z" fill="url(#b)"/><path d="m2.3921 22.392v1.2159h19.216v-1.2159z" fill="none" opacity=".61" stroke="#000" stroke-width=".78412"/><path d="m3 22.5v1h18v-1z" fill="#fff" opacity=".2"/></g><path d="m2.5 22.333v1.3333h19v-1.3333z" fill="url(#b)"/><path d="m2.3921 22.392v1.2159h19.216v-1.2159z" fill="none" opacity=".61" stroke="#000" stroke-width=".78412"/><path d="m3 22.5v1h18v-1z" fill="#fff" opacity=".2"/></svg>

<?xml version="1.0" encoding="UTF-8" standalone="no"?>
<svg
   xmlns:dc="http://purl.org/dc/elements/1.1/"
   xmlns:cc="http://creativecommons.org/ns#"
   xmlns:rdf="http://www.w3.org/1999/02/22-rdf-syntax-ns#"
   xmlns:svg="http://www.w3.org/2000/svg"
   xmlns="http://www.w3.org/2000/svg"
   xmlns:xlink="http://www.w3.org/1999/xlink"
   xmlns:sodipodi="http://sodipodi.sourceforge.net/DTD/sodipodi-0.dtd"
   xmlns:inkscape="http://www.inkscape.org/namespaces/inkscape"
   height="24"
   width="24"
   version="1.1"
   id="svg51"
   sodipodi:docname="lc_underlinedouble.svg"
   inkscape:version="0.92.4 (unknown)"
   inkscape:export-filename="/home/rizmut/Dokumen/Rizmut/Github/libreoffice-style-elementary/images_elementary/cmd/ko/lc_underlinedouble.png"
   inkscape:export-xdpi="96"
   inkscape:export-ydpi="96">
  <metadata
     id="metadata57">
    <rdf:RDF>
      <cc:Work
         rdf:about="">
        <dc:format>image/svg+xml</dc:format>
        <dc:type
           rdf:resource="http://purl.org/dc/dcmitype/StillImage" />
        <dc:title></dc:title>
      </cc:Work>
    </rdf:RDF>
  </metadata>
  <defs
     id="defs55">
    <radialGradient
       inkscape:collect="always"
       xlink:href="#a"
       id="radialGradient1180"
       gradientUnits="userSpaceOnUse"
       gradientTransform="matrix(-1.551757,0.03070916,-0.03957393,-1.999701,23.830413,10.037915)"
       cx="10.918949"
       cy="4.5648432"
       fx="10.918949"
       fy="4.5648432"
       r="5.0947933" />
    <linearGradient
       id="b-9"
       gradientTransform="matrix(1,0,0,0.66667,1,9.9999)"
       gradientUnits="userSpaceOnUse"
       x1="12"
       x2="12"
       xlink:href="#linearGradient921"
       y1="22" />
    <linearGradient
       id="linearGradient921">
      <stop
         offset="0"
         stop-color="#555"
         id="stop2-1" />
      <stop
         offset="1"
         stop-color="#666"
         id="stop4-5" />
    </linearGradient>
    <linearGradient
       id="b-2"
       gradientTransform="matrix(1,0,0,0.66667,1,9.9999)"
       gradientUnits="userSpaceOnUse"
       x1="12"
       x2="12"
       xlink:href="#linearGradient921"
       y1="22" />
  </defs>
  <sodipodi:namedview
     pagecolor="#ffffff"
     bordercolor="#666666"
     borderopacity="1"
     objecttolerance="10"
     gridtolerance="10"
     guidetolerance="10"
     inkscape:pageopacity="0"
     inkscape:pageshadow="2"
     inkscape:window-width="1366"
     inkscape:window-height="714"
     id="namedview53"
     showgrid="true"
     inkscape:zoom="11.313709"
     inkscape:cx="-8.4729355"
     inkscape:cy="10.001977"
     inkscape:window-x="0"
     inkscape:window-y="28"
     inkscape:window-maximized="1"
     inkscape:current-layer="svg51"
     inkscape:snap-global="true">
    <inkscape:grid
       type="xygrid"
       id="grid864" />
  </sodipodi:namedview>
  <linearGradient
     id="a">
    <stop
       offset="0"
       stop-color="#555"
       id="stop2" />
    <stop
       offset="1"
       stop-color="#666"
       id="stop4" />
  </linearGradient>
  <linearGradient
     id="b"
     gradientUnits="userSpaceOnUse"
     x1="13"
     x2="13"
     xlink:href="#a"
     y1="25"
     y2="3" />
  <linearGradient
     id="c">
    <stop
       offset="0"
       id="stop8" />
    <stop
       offset="1"
       stop-opacity="0"
       id="stop10" />
  </linearGradient>
  <linearGradient
     id="d">
    <stop
       offset="0"
       stop-opacity="0"
       id="stop13" />
    <stop
       offset=".5"
       id="stop15" />
    <stop
       offset="1"
       stop-opacity="0"
       id="stop17" />
  </linearGradient>
  <radialGradient
     id="e"
     cx="40"
     cy="43.5"
     gradientTransform="matrix(.87733142 0 0 .75 -17.142285 -11.625)"
     gradientUnits="userSpaceOnUse"
     r="2"
     xlink:href="#c" />
  <radialGradient
     id="f"
     cx="9"
     cy="43.5"
     gradientTransform="matrix(.87733142 0 0 .75 -1.350319 -11.625)"
     gradientUnits="userSpaceOnUse"
     r="2"
     xlink:href="#c" />
  <linearGradient
     id="g"
     gradientTransform="matrix(.87733142 0 0 1 -5.736976 -22.5)"
     gradientUnits="userSpaceOnUse"
     x1="25"
     x2="25"
     xlink:href="#d"
     y1="45"
     y2="42" />
  <radialGradient
     id="h"
     cx="40"
     cy="43.5"
     gradientTransform="matrix(1 0 0 .75 -20 -9.125)"
     gradientUnits="userSpaceOnUse"
     r="2"
     xlink:href="#c" />
  <radialGradient
     id="i"
     cx="9"
     cy="43.5"
     gradientTransform="matrix(1 0 0 .75 -6 -9.125)"
     gradientUnits="userSpaceOnUse"
     r="2"
     xlink:href="#c" />
  <linearGradient
     id="j"
     gradientUnits="userSpaceOnUse"
     x1="14"
     x2="14"
     xlink:href="#d"
     y1="25"
     y2="22" />
  <linearGradient
     id="k"
     gradientUnits="userSpaceOnUse"
     x1="12.046913"
     x2="11.445407"
     xlink:href="#a"
     y1="25.559875"
     y2="4.349593" />
  <path
     inkscape:connector-curvature="0"
     id="path1177"
     style="font-style:normal;font-variant:normal;font-weight:normal;font-stretch:normal;font-size:23.82222939px;line-height:1.25;font-family:'Droid Sans';-inkscape-font-specification:'Droid Sans';letter-spacing:0px;word-spacing:0px;fill:url(#radialGradient1180);fill-opacity:1;stroke:#000000;stroke-width:1;stroke-miterlimit:4;stroke-dasharray:none;stroke-opacity:0.6"
     d="M 3.5093144,1.5154195 V 3.0876867 H 11.537406 C 11.132428,8.1618215 8.6929792,11.164354 2.9518219,13.90391 L 4,15.5 C 11.099024,12.021954 13.514651,7.6853769 13.514651,1.5154195 Z M 17.5,0.5 v 17 h 2 v -17 z"
     sodipodi:nodetypes="cccccccccccc" />
  <path
     style="font-style:normal;font-variant:normal;font-weight:normal;font-stretch:normal;font-size:23.82222939px;line-height:1.25;font-family:'Droid Sans';-inkscape-font-specification:'Droid Sans';letter-spacing:0px;word-spacing:0px;opacity:0.2;fill:#ffffff;fill-opacity:1;stroke:none;stroke-width:1;stroke-miterlimit:4;stroke-dasharray:none;stroke-opacity:0.6"
     d="M 17.5,0.5 V 2 h 2 V 0.5 Z M 3.5097656,1.515625 v 1.5 h 9.9472654 c 0.03486,-0.4892468 0.05859,-0.9858555 0.05859,-1.5 z M 11.339844,4.5878906 C 10.58827,8.7729719 8.1003949,11.447199 2.9511719,13.904297 l 0.734375,1.117187 C 8.8770208,12.38092 11.150703,9.42933 11.537109,4.5878906 Z"
     id="path1183"
     inkscape:connector-curvature="0" />
  <g
     transform="translate(1.162529e-8,-3)"
     id="g59">
    <path
       style="fill:url(#b-2)"
       inkscape:connector-curvature="0"
       d="m 2.5,22.333 v 1.3333 h 19 V 22.333 Z"
       id="path53" />
    <path
       style="opacity:0.61000001;fill:none;stroke:#000000;stroke-width:0.78412002"
       inkscape:connector-curvature="0"
       d="m 2.3921,22.392 v 1.2159 h 19.216 V 22.392 Z"
       id="path55" />
    <path
       style="opacity:0.2;fill:#ffffff"
       inkscape:connector-curvature="0"
       d="m 3,22.5 v 1 h 18 v -1 z"
       id="path57" />
  </g>
  <g
     id="g863">
    <path
       id="path33"
       d="m 2.5,22.333 v 1.3333 h 19 V 22.333 Z"
       style="fill:url(#b-9)"
       inkscape:connector-curvature="0" />
    <path
       id="path35"
       d="m 2.3921,22.392 v 1.2159 h 19.216 V 22.392 Z"
       style="opacity:0.61000001;fill:none;stroke:#000000;stroke-width:0.78412002"
       inkscape:connector-curvature="0" />
    <path
       id="path37"
       d="m 3,22.5 v 1 h 18 v -1 z"
       style="opacity:0.2;fill:#ffffff"
       inkscape:connector-curvature="0" />
  </g>
</svg>
